!!!!SEGMENT: pl-cz--i-155--005-003_anonim--partita-es-andante.krn
!!!cenid: 18xx:2510
!!!COM: Anonim
!!!COM-rismid: pe30004985
!!!CDT:
!!!CNT:
!!!OPR: Partita Es
!!!OTL: Andante
!!!OMV: 003
!!!PDT:
!!!AGN: Secular; Partita
!!!SMS-siglum: PL-CZ
!!!SMS-shelfmark: I-155
!!!SMS-shelfwork: 005-003 M
!!!SMS-variant:
!!!SMS-altvar:
!!!NIFC-rismid: 1001012513
!!!URL-scan: http://repozytorium.nifc.pl/skany/pl-cz-nut--i-155
!!!ONB-nifc: UWAGA: Parthia 5 (005), części 1. Moderato, 2. Menuetto, 3. Andante, 4. Finale. Uwaga: 5 partii
!!!AIN: 2 clars 2 cor 1 fagot
!!!key:
**kern	**dynam	**kern	**dynam	**kern	**kern	**kern
*part5	*part5	*part4	*part4	*part3	*part2	*part1
*staff5	*	*staff4	*	*staff3	*staff2	*staff1
*Icor	*	*Icor	*	*Ifagot	*Iclars	*Iclars
*I"Corno Secondo	*	*I"Corno Primo:	*	*I"Fagotto	*I"Clarinetto Secondo	*I"Clarinetto Primo
*I'cor 2	*	*I'cor 1	*	*I'fg	*I'cl 2	*I'cl 1
*>[A,A,B,B]	*>[A,A,B,B]	*>[A,A,B,B]	*>[A,A,B,B]	*>[A,A,B,B]	*>[A,A,B,B]	*>[A,A,B,B]
*>A	*>A	*>A	*>A	*>A	*>A	*>A
*clefG2	*	*clefG2	*	*clefF4	*clefG2	*clefG2
*ITrd4c7	*	*ITrd4c7	*	*	*	*
*k[b-]	*	*k[b-]	*	*k[b-]	*k[b-]	*k[b-]
*B-:	*	*B-:	*	*B-:	*B-:	*B-:
*M3/4	*	*M3/4	*	*M3/4	*M3/4	*M3/4
*all\right	*	*all\right	*	*all\right	*all\right	*all\right
=1	=1	=1	=1	=1	=1	=1
*	*	*2\right	*	*	*	*
!LO:TX:a:B:t=Adagio	!	!LO:TX:a:B:t=Adagio	!	!LO:TX:a:B:t=Andante	!LO:TX:a:B:t=Adagio	!LO:TX:a:B:t=Adagio
2.F/	.	2.f\	.	2.FF/	4.a\	4.cc\
.	.	.	.	.	8b-\L	8dd\L
.	.	.	.	.	8a\	8cc\
.	.	.	.	.	8dd\J	8ff\J
=2	=2	=2	=2	=2	=2	=2
2.F/	.	2.f\	.	2.FF/	4dd\	4ff\
.	.	.	.	.	4cc\	4ee\
.	.	.	.	.	4b-\	4dd\
=3	=3	=3	=3	=3	=3	=3
2.F/	.	2.f\	.	2.FF/	4.a\	4.cc\
.	.	.	.	.	8b-\L	8dd\L
.	.	.	.	.	8a\	8cc\
.	.	.	.	.	8b-\J	8dd\J
!	!	!	!	!	!	!LO:LB:g=original
=4	=4	=4	=4	=4	=4	=4
2.F/	.	2.f\	.	2.FF/	4b-/	4dd\
.	.	.	.	.	4a/	4cc\
.	.	.	.	.	4g/	4b-\
=5	=5	=5	=5	=5	=5	=5
2F/	.	2f\	.	8A\L	4f/	4a/
.	.	.	.	8F\	.	.
.	.	.	.	8C\	4r	4r
.	.	.	.	8AA\J	.	.
4r	.	4r	.	4FF/	8r	4aa\
.	.	.	.	.	8ff\	.
=6	=6	=6	=6	=6	=6	=6
2.r	.	2.r	.	8c\L	8ee\L	4gg\
.	.	.	.	8G\	8ee\J	.
.	.	.	.	8E\	4ee\	4gg\
.	.	.	.	8G\J	.	.
.	.	.	.	8C/L	8r	8r
.	.	.	.	8C/J	8gg\	8bb-\
!	!	!	!	!	!LO:LB:g=original	!
=7	=7	=7	=7	=7	=7	=7
!	!	!	!	!LO:TX:t=P:problem=mixed beam	!	!
4r	.	4r	.	8FF/L	4ff\	4aa\
.	.	.	.	8F\	.	.
4r	.	4r	.	8C\	4ff\	4aa\
.	.	.	.	8AA\J	.	.
!	!	!	!	!	!	!LO:N:vis=16
8r	.	8r	.	4FF/	8r	8r
8f\	.	8a\	.	.	16gg\LL	16ccc\LL
.	.	.	.	.	16ff\JJ	16aa\JJ
!	!	!	!	!LO:LB:g=original	!	!
=8	=8	=8	=8	=8	=8	=8
!	!	!	!	!LO:TX:t=P:problem=mixed beam	!	!
4f\	.	4a\	.	8C/L	4ff\	4aa\
.	.	.	.	8c\J	.	.
4c/	.	4g\	.	4C/	4ee\	4gg\
4r	.	4r	.	4r	4r	4r
=9	=9	=9	=9	=9	=9	=9
*	*	*	*	*	*2\right	*2\right
!	!LO:HP:a	!	!LO:HP:a	!LO:TX:t=P:problem=mixed beam	!	!
2.c/	<	2.a\	<	8FF/L	2.ff\	2.aa\
.	.	.	.	8F\	.	.
.	.	.	.	8A\	.	.
.	.	.	.	8c\	.	.
.	.	.	.	8.f\	.	.
.	[[	.	[[	16c\Jk	.	.
=10	=10	=10	=10	=10	=10	=10
4c/	.	4a\	.	4F\	16ff\LL	16aa\LL
.	.	.	.	.	16ee\	16gg#X\
.	.	.	.	.	16ff\	16aa\
.	.	.	.	.	16ee\JJ	16gg#\JJ
4r	.	4r	.	4r	16ff\LL	16aa\LL
.	.	.	.	.	16ee\	16gg#\
.	.	.	.	.	16ff\	16aa\
.	.	.	.	.	16gg\JJ	16bbn\JJ
!	!	!	!	!	!	!LO:LB:g=original
4r	.	4r	.	4r	16aa\LL	16ccc\LL
.	.	.	.	.	16gg\	16bb\
.	.	.	.	.	16ff\	16aa\
.	.	.	.	.	16ee\JJ	16ggn\JJ
!LO:LB:g=original	!	!	!	!	!	!
=11	=11	=11	=11	=11	=11	=11
4r	.	4r	.	8r	8ee\L	4gg\
.	.	.	.	8GG/L	8dd\J	.
!LO:N:vis=16	!	!	!	!	!	!
8r	.	8r	.	8AA/	4dd\	4ff\
8c/	.	8g\	.	8C/	.	.
!	!	!LO:LB:g=original	!	!	!	!
4c/	.	4g\	.	8G/	8r	8ff\L
.	.	.	.	8B-/J	8b-\	8dd\J
=12	=12	=12	=12	=12	=12	=12
4c/	.	4g\	.	4c\	8cc\L	8ee\L
.	.	.	.	.	8dd\	8ff\
4r	.	4r	.	4r	8ee\	8gg\
.	.	.	.	.	8ff\	8aa\
4r	.	4r	.	4r	8dd\	8bb-\
.	.	.	.	.	8ee\J	8ccc\J
!	!	!	!	!	!LO:LB:g=original	!
=13	=13	=13	=13	=13	=13	=13
4f\	.	4a\	.	4F\	8ff\L	8aa\L
.	.	.	.	.	16ee\L	16gg\L
.	.	.	.	.	16dd\JJ	16ff\JJ
4c/	.	4g\	.	4G\	4cc\	4ee\
4c/	.	4g\	.	4GG/	4g/	4dd\
=14	=14	=14	=14	=14	=14	=14
!	!	!	!	!LO:TX:t=P:problem=mixed beam	!	!
8c/L	.	8g\L	.	16C/LL	4e/	4cc\
.	.	.	.	16c\	.	.
8c/J	.	8g\J	.	16G\	.	.
.	.	.	.	16E\JJ	.	.
!	!	!	!	!LO:N:vis=8	!	!
4c/	.	4g\	.	4C/	8r	8r
.	.	.	.	.	8ee\L	8gg\L
!	!	!	!	!LO:N:vis=8	!	!
4r	.	4r	.	4r	8ff\	8aa\
.	.	.	.	.	8dd\J	8bb-\J
!	!	!	!	!LO:LB:g=original	!	!
=15	=15	=15	=15	=15	=15	=15
!	!	!	!	!LO:TX:t=P:problem=mixed beam	!	!
8c/L	.	8g\L	.	16C/LL	4ee\	4ccc\
.	.	.	.	16c\	.	.
8c/J	.	8g\J	.	16G\	.	.
.	.	.	.	16E\JJ	.	.
4c/	.	4g\	.	4C/	8r	8r
.	.	.	.	.	8g/L	8ee\L
4r	.	4r	.	4r	8a/	8ff\
.	.	.	.	.	8f/J	8dd\J
=16	=16	=16	=16	=16	=16	=16
!	!	!	!	!LO:TX:t=P:problem=mixed beam	!	!
8c/L	.	8g\L	.	8C/L	8e/L	8cc\L
8c/J	.	8g\J	.	8c\J	8g/J	8ee\J
4c/	.	4g\	.	4C/	4e/	4cc\
!LO:TX:b:t=16	!	!LO:TX:b:t=16	!	!LO:TX:b:t=16	!LO:TX:b:t=16	!LO:TX:b:t=16
4r	.	4r	.	4r	4r	4ryy
!	!	!	!	!	!	!LO:LB:g=original
=17:|!|:	=17:|!|:	=17:|!|:	=17:|!|:	=17:|!|:	=17:|!|:	=17:|!|:
*>B	*>B	*>B	*>B	*>B	*>B	*>B
2.c/	.	2g\	.	2.C/	4.ee\	4.gg\
.	.	.	.	.	16ff\LL	16aa\LL
.	.	.	.	.	16dd\JJ	16gg\JJ
.	.	4r	.	.	8cc\L	8ee\L
.	.	.	.	.	8cc\J	8ee\J
!LO:LB:g=original	!	!	!	!	!	!
=18	=18	=18	=18	=18	=18	=18
2c/	.	2g\	.	2.C/	4.g/	4.ee\
.	.	.	.	.	16a/LL	16ff\LL
.	.	.	.	.	16g/JJ	16dd\JJ
4r	.	4r	.	.	8e/L	8cc\L
.	.	.	.	.	8e/J	8cc\J
!	!	!LO:LB:g=original	!	!	!LO:LB:g=original	!
=19	=19	=19	=19	=19	=19	=19
2.r	.	2.r	.	8d\L	4bn\	4dd\
.	.	.	.	8Bn\	.	.
.	.	.	.	8G\	4b\	4dd\
.	.	.	.	8F\	.	.
.	.	.	.	8D\	8cc\L	8ee\L
.	.	.	.	8BBny\J	8ee\J	8ff\J
=20	=20	=20	=20	=20	=20	=20
4c/	.	4g\	.	8GG/L	4dd\	4ff\
.	.	.	.	8C/J	.	.
4c/	.	4g\	.	4C/	4cc\	4ee\
!	!	!	!	!	!	!LO:N:vis=16
4r	.	4r	.	4r	8cc\L	8r
.	.	.	.	.	8cc\J	16ccc\LL
.	.	.	.	.	.	16ccc\JJ
=21	=21	=21	=21	=21	=21	=21
*tremolo	*	*tremolo	*	*tremolo	*	*
!	!	!	!	!LO:TX:t=P:problem=tremolo bez kropki	!	!
8C/L	.	8c/L	.	8C/L	2.cc\	2.ccc\
8C/	.	8c/	.	8C/	.	.
8C/	.	8c/	.	8C/	.	.
8C/	.	8c/	.	8C/	.	.
8C/	.	8c/	.	8C/	.	.
8C/J	.	8c/J	.	8C/J	.	.
*Xtremolo	*	*Xtremolo	*	*Xtremolo	*	*
!	!	!	!	!LO:LB:g=original	!	!
=22	=22	=22	=22	=22	=22	=22
4C/	.	4c/	.	4C/	4cc\	16cc\LL
.	.	.	.	.	.	16bn\
.	.	.	.	.	.	16cc\
.	.	.	.	.	.	16dd\JJ
4r	.	4r	.	4r	16cc\LL	16ee\LL
!	!	!	!	!	!LO:SIC:v:s=16bn\	!
.	.	.	.	.	16b-\	16dd\
.	.	.	.	.	16cc\	16ee\
.	.	.	.	.	16dd\JJ	16ff\JJ
4r	.	4r	.	4r	16ee\LL	16gg\LL
.	.	.	.	.	16dd\	16ff\
.	.	.	.	.	16ee\	16gg\
.	.	.	.	.	16ff\JJ	16aa\JJ
=23	=23	=23	=23	=23	=23	=23
!	!	!	!	!LO:N:vis=8	!	!LO:N:vis=2
2.c/	.	2.g\	.	16r	2.gg\	2.bb-X\
.	.	.	.	16C\LL	.	.
.	.	.	.	16E\	.	.
.	.	.	.	16G\JJ	.	.
!	!	!	!	!LO:TX:t=P:problem=mixed beam	!	!
.	.	.	.	16B-X\LL	.	.
.	.	.	.	16C/	.	.
.	.	.	.	16E/	.	.
.	.	.	.	16G/JJ	.	.
.	.	.	.	16B-\LL	.	.
.	.	.	.	16G\	.	.
.	.	.	.	16E\	.	.
.	.	.	.	16C\JJ	.	.
!	!	!	!	!	!	!LO:LB:g=original
=24	=24	=24	=24	=24	=24	=24
*	*	*tremolo	*	*	*	*
8f\L	.	8a\L	.	4F\	4ff\	4aa\
8f\	.	8a\	.	.	.	.
8f\	.	8a\	.	4r	4f/	4a/
8f\	.	8a\J	.	.	.	.
*	*	*Xtremolo	*	*	*	*
8f\J	.	8a\	.	4F\	16f/LL	(16a/LL
.	.	.	.	.	16a/	16cc/
8r	.	8r	.	.	16g/	16b-X/
.	.	.	.	.	16f/JJ	16a/JJ)
=25	=25	=25	=25	=25	=25	=25
8c\L	.	8g\L	.	4C/	4g/	4b-/
8g\	.	8b-\	.	.	.	.
8g\	.	8b-\	.	4r	4g/	4b-/
8g\	.	8b-\J	.	.	.	.
8g\	.	8b-\	.	4C/	(16g/LL	(16b-/LL
.	.	.	.	.	16b-X/	16dd/
8g\J	.	8r	.	.	16a/	16cc/
.	.	.	.	.	16g/JJ)	16b-/JJ)
!	!	!	!	!	!LO:LB:g=original	!
=26	=26	=26	=26	=26	=26	=26
4f\	.	4a\	.	4F\	4f/	4a/
8r	.	8r	.	8r	8r	8r
!LO:LB:g=original	!	!	!	!	!	!
8F/L	.	8F/L	.	8F\L	8f\L	8f/L
8A/	.	8A/	.	8A\	8a\	8a/
8c/J	.	8c/J	.	8c\J	8cc\J	8cc/J
!	!	!LO:LB:g=original	!	!	!	!
=27	=27	=27	=27	=27	=27	=27
4f\	.	4f\	.	4f\	4ff\	4ff\
8r	.	8r	.	8r	8r	8r
8f\L	.	8a\L	.	8f\L	8ff\L	8aa\L
8f\	.	8a\	.	8d\	8ff\	8aa\
8f\J	.	8a\J	.	8Bn\J	8ff\J	8aa\J
!	!	!	!	!LO:LB:g=original	!	!
=28	=28	=28	=28	=28	=28	=28
!	!	!	!	!LO:TX:t=P:problem=mixed beam	!	!
4f\	.	4a\	.	8c\L	4ff\	4aa\
.	.	.	.	8C/J	.	.
4c/	.	4g\	.	4C/	4ee\	4gg\
4r	.	4r	.	4r	4r	4r
=29	=29	=29	=29	=29	=29	=29
2.F/	.	2.f\	.	8r	2.bb-X\	2.ddd\
.	.	.	.	8BB-\L	.	.
.	.	.	.	8D\	.	.
.	.	.	.	8F\	.	.
.	.	.	.	8B-\	.	.
.	.	.	.	8F\J	.	.
=30	=30	=30	=30	=30	=30	=30
4F/	.	4f\	.	4BB-/	16bb-\LL	16ddd\LL
.	.	.	.	.	16aa\	16ccc#X\
.	.	.	.	.	16bb-\	16ddd\
.	.	.	.	.	16aa\JJ	16ccc#\JJ
4r	.	4r	.	4r	16bb-\LL	16ddd\LL
.	.	.	.	.	16aa\	16cccn\
.	.	.	.	.	16gg\	16bb-\
.	.	.	.	.	16ff\JJ	16aa\JJ
!	!	!	!	!	!	!LO:LB:g=original
!	!	!	!	!	!	!LO:SIC:v:s=16gg\LL
4r	.	4r	.	4r	16ee\LL	16ff\LL
!	!	!	!	!	!	!LO:SIC:v:s=16ff\
.	.	.	.	.	16dd\	16ee\
!	!	!	!	!	!	!LO:SIC:v:s=16ee\
.	.	.	.	.	16cc\	16dd\
!	!	!	!	!	!	!LO:SIC:v:s=16dd\JJ
.	.	.	.	.	16b-X\JJ	16cc\JJ
=31	=31	=31	=31	=31	=31	=31
4r	.	4r	.	8r	8a\L	8cc\L
.	.	.	.	8C\L	8gg\J	8bb-X\J
8r	.	4g\	.	8E\	4.gg\	4.bb-\
8c/	.	.	.	8G\	.	.
4c/	.	4g\	.	8c\	.	.
.	.	.	.	8e\J	8ee\	8gg\
!	!	!	!	!	!LO:PB:g=original	!
=32	=32	=32	=32	=32	=32	=32
4A/	.	4f\	.	4f\	8ff\L	8aa\L
.	.	.	.	.	8gg\	8bb-\
4r	.	4r	.	4r	8aa\	8ccc\
.	.	.	.	.	8bb-\	8ddd\
4r	.	4r	.	4r	8gg\	8bb-\
.	.	.	.	.	8ee\J	8gg\J
=33	=33	=33	=33	=33	=33	=33
!	!	!	!	!	!	!LO:N:vis=4
4r	.	4r	.	8F\L	8ff\L	8aa\
!	!	!	!	!	!	!LO:N:vis=8
.	.	.	.	8B-\J	16dd\L	16bb-\LL
!	!	!	!	!	!	!LO:N:vis=8
.	.	.	.	.	16b-X\JJ	16gg\JJ
!	!	!	!	!	!LO:N:vis=8	!
4f\	.	8a\L	.	4c\	4aL/	4ff\
.	.	8g\	.	.	.	.
!	!	!	!	!	!LO:N:vis=8	!
4c/	.	8g\	.	4C/	4gJ/	4ee\
.	.	8g\J	.	.	.	.
!LO:LB:g=original	!	!	!	!LO:LB:g=original	!	!
=34	=34	=34	=34	=34	=34	=34
8A/L	.	8f\L	.	16F\LL	4a/	4ff\
.	.	.	.	16f\	.	.
8A/J	.	8f\J	.	16c\	.	.
.	.	.	.	16A\JJ	.	.
4A/	.	4f\	.	4F\	8r	8r
.	.	.	.	.	8aa\L	8ccc\L
4r	.	4r	.	8r	8bb-\	8ddd\
.	.	.	.	8r	8gg\J	8bb-\J
!	!	!LO:LB:g=original	!	!	!	!
=35	=35	=35	=35	=35	=35	=35
8A/L	.	8f\L	.	16F\LL	8ff\	4aa\
.	.	.	.	16f\	.	.
8A/J	.	8f\J	.	16c\	8r	.
.	.	.	.	16A\JJ	.	.
4A/	.	4f\	.	4F\	8r	8r
.	.	.	.	.	8b-\L	8aa\L
4r	.	4r	.	4r	8dd\	8bb-\
.	.	.	.	.	8b-\J	8gg\J
=36	=36	=36	=36	=36	=36	=36
8A/L	.	8f\L	.	4F\	8a/L	8ff\L
8A/J	.	8f\J	.	.	8cc/J	8aa\J
4A/	.	4f\	.	4FF/	4a/	4ff\
!LO:TX:b:t=20	!	!LO:TX:b:t=20	!	!LO:TX:b:t=20	!LO:TX:b:t=20	!LO:TX:b:t=20
4r	.	4r	.	4r	4r	4ryy
=:|!	=:|!	=:|!	=:|!	=:|!	=:|!	=:|!
*-	*-	*-	*-	*-	*-	*-
!!!system-decoration: [(s1,s2,s3)][(s4,s5)]
!!!RDF**kern: > = above
!!!RDF**kern: < = below
!!!ENC: Marcin Jachim
!!!END: 2021-06-16
!!!ENC: Andrzej Kubiczek
!!!END: 2021-06-21
